dist/images/quote.svg

<svg width="50" height="40" viewBox="0 0 50 40" fill="none" xmlns="http://www.w3.org/2000/svg">
<path opacity="0.5" fill-rule="evenodd" clip-rule="evenodd" d="M11.7008 17.4342C12.8365 17.4342 14.004 17.6048 15.1715 17.9409C18.0177 18.7599 20.3721 20.6101 21.8016 23.1485C23.2466 25.7158 23.6051 28.6908 22.812 31.5275C21.4844 36.2727 17.1202 39.5873 12.1985 39.5873C12.1825 39.5873 12.167 39.5868 12.151 39.5863L12.1498 39.5863C8.16098 39.4307 5.06122 37.8728 2.93653 34.9555C-0.860357 29.7419 -0.40837 21.4589 1.13306 15.9495C3.75896 6.5586 9.98186 0 16.2654 0C16.6558 0 17.0496 0.0268509 17.4359 0.0795584C17.7914 0.128288 18.1087 0.328676 18.3061 0.629009C18.5035 0.929343 18.5607 1.29979 18.4642 1.64587L17.3201 5.73816C17.1878 6.21004 16.7905 6.56059 16.3057 6.63269C11.0708 7.41087 8.44291 14.321 7.349 18.3258C8.48369 17.835 9.94705 17.4342 11.7008 17.4342ZM41.947 17.9409C44.7932 18.7599 47.1476 20.6101 48.5771 23.149C50.0216 25.7158 50.3806 28.6913 49.5885 31.528C48.2609 36.2732 43.8962 39.5878 38.975 39.5878C38.9586 39.5878 38.9431 39.5873 38.9271 39.5868L38.9258 39.5868C34.9375 39.4317 31.8372 37.8733 29.713 34.9565C25.9156 29.7419 26.3676 21.4589 27.9085 15.9495C30.5349 6.5586 36.7578 0 43.0414 0C43.4322 0 43.826 0.0268509 44.2119 0.0795584C44.5679 0.128288 44.8852 0.328676 45.0821 0.629009C45.2795 0.929343 45.3366 1.29979 45.2402 1.64587L44.096 5.73815C43.9633 6.21004 43.5665 6.56059 43.0817 6.63269C37.8463 7.41087 35.2184 14.321 34.1245 18.3258C35.2592 17.835 36.723 17.4342 38.4768 17.4342C39.612 17.4342 40.7795 17.6048 41.947 17.9409Z" fill="#67ADD7"/>
</svg>

<svg xmlns="http://www.w3.org/2000/svg" width="50" height="40" fill="none" xmlns:v="https://vecta.io/nano"><path opacity=".5" fill-rule="evenodd" d="M11.7 17.434c1.136 0 2.303.17 3.47.507 2.846.82 5.2 2.67 6.63 5.208 1.445 2.567 1.803 5.542 1 8.38-1.328 4.745-5.692 8.06-10.614 8.06-.016 0-.03-.001-.047-.001h-.001c-3.99-.156-7.09-1.714-9.213-4.63C-.86 29.742-.408 21.46 1.133 15.95 3.76 6.56 9.982 0 16.265 0a8.69 8.69 0 0 1 1.171.08c.355.05.673.25.87.55s.255.67.158 1.017L17.32 5.738c-.132.472-.53.822-1.014.895-5.235.778-7.863 7.688-8.957 11.693 1.135-.49 2.598-.892 4.352-.892zm30.246.507c2.846.82 5.2 2.67 6.63 5.208a10.96 10.96 0 0 1 1.011 8.379c-1.328 4.745-5.692 8.06-10.614 8.06-.016 0-.032-.001-.048-.001h-.001c-3.988-.155-7.09-1.713-9.213-4.63-3.797-5.215-3.345-13.498-1.805-19.007C30.535 6.56 36.758 0 43.04 0a8.68 8.68 0 0 1 1.17.08 1.24 1.24 0 0 1 .87.549c.197.3.255.67.158 1.017l-1.144 4.092c-.133.472-.53.822-1.014.895-5.235.778-7.863 7.688-8.957 11.693a10.91 10.91 0 0 1 4.352-.892 12.56 12.56 0 0 1 3.47.507z" fill="#67add7"/></svg>
